flags/tibet.svg

<svg width="512" height="512" viewBox="0 0 512 512" fill="none" xmlns="http://www.w3.org/2000/svg">
<rect width="512" height="512" fill="var(--flag-palette-yellow, #ffda44)"/>
<path d="M512 480V32H32L32.0001 479.559H511.528L512 480Z" fill="var(--flag-palette-bright-red, #d80027)"/>
<path d="M32.0012 32L271.999 255.998L172.55 32H272L271.999 255.998L32 163.178L32.0012 32Z" fill="var(--flag-palette-navy, #002266)"/>
<path d="M32 348.82V256L271.999 255.998L32 348.82Z" fill="var(--flag-palette-navy, #002266)"/>
<path d="M512 479.998L271.999 255.998L512 348.82V479.998Z" fill="var(--flag-palette-navy, #002266)"/>
<path d="M512 255.999L271.999 255.998L512 163.18V255.999Z" fill="var(--flag-palette-navy, #002266)"/>
<path d="M512 32L271.999 255.998L371.451 32H512Z" fill="var(--flag-palette-navy, #002266)"/>
<circle cx="272.004" cy="255.999" r="89.0441" fill="var(--flag-palette-yellow, #ffda44)"/>
<path d="M272 256L512 480H32L272 256Z" fill="var(--flag-palette-white, #eeeeee)"/>
<path d="M272 356.887L296 380.887H248L272 356.887Z" fill="var(--flag-palette-gold, #ff9811)"/>
<path d="M270.887 293.454C270.312 295.421 269.738 296.84 268.86 298.375C267.972 299.927 266.374 301.087 264.615 302.365C262.358 304.004 259.835 305.836 258.203 308.937C256.143 312.85 255.317 315.583 255.096 317.474C254.904 316.646 254.793 315.766 254.681 314.715C254.388 313.009 254.845 310.277 255.172 308.324C255.486 306.449 255.68 305.291 254.974 306.45C254.787 306.746 254.225 307.361 253.444 308.217C250.593 311.339 244.82 317.66 243.68 323.378C242.813 326.723 242.52 328.889 243.68 332.233C244.76 336.266 246.084 337.738 249.532 341.572C249.788 341.856 250.055 342.154 250.335 342.466C250.847 342.931 250.453 340.724 250.044 338.433C249.76 336.84 249.468 335.206 249.468 334.399C249.18 333.021 249.832 334.303 250.845 336.298C251.857 338.291 253.23 340.993 254.389 342.466C255.831 344.433 256.708 345.612 258.735 347.387C261.629 349.943 268.002 354.474 267.417 353.685C265.967 351.572 265.704 350.469 265.458 349.435C265.36 349.024 265.264 348.624 265.098 348.175C264.231 345.022 264.231 342.466 265.098 338.923C265.389 337.425 266.129 335.827 266.75 334.486C267.353 333.183 267.844 332.124 267.699 331.637C267.884 330.27 268.181 331.806 268.522 333.569C268.721 334.599 268.936 335.707 269.151 336.359C270.027 339.343 271.569 342.726 272.843 345.523C274.092 348.264 275.084 350.44 274.94 351.122C274.647 351.513 279.286 348.168 281.312 346.002C283.986 343.342 285.493 338.693 286.246 336.371C286.552 335.426 286.734 334.867 286.818 334.982C289.137 337.936 288.27 343.247 287.978 343.837C287.685 344.426 291.457 341.472 292.899 339.505C297.245 334.193 296.085 329.862 294.351 323.762C293.824 322.154 293.24 321.032 292.65 319.901C291.94 318.54 291.223 317.164 290.589 314.907C290.278 313.625 291.156 310.896 291.701 309.202C292.161 307.772 292.384 307.078 291.457 308.609C290.887 309.305 289.696 310.242 288.318 311.326C286.183 313.007 283.599 315.04 282.19 317.073C282.095 317.214 281.994 317.36 281.888 317.508C282.088 316.629 282.308 315.806 282.711 314.744L282.699 314.744C282.929 314.253 283.073 313.807 283.21 313.381C283.43 312.7 283.633 312.071 284.145 311.395C284.74 310.608 280.977 313.192 279.437 314.743C277.902 316.042 277.055 316.991 276.413 318.451C276.645 316.04 278.727 310.759 278.993 310.384C279.286 309.595 279.568 307.827 279.286 306.45V306.443C278.993 304.476 277.259 299.945 277.551 301.721C277.844 305.264 275.817 308.019 272.63 310.973C270.69 312.588 268.582 314.421 266.556 316.635C266.843 313.775 267.359 310.781 269.445 308.416C272.59 304.746 274.594 300.301 273.498 295.428C273.206 293.262 271.764 288.931 271.764 289.917C271.764 290.765 271.546 291.39 271.311 292.066C271.163 292.488 271.009 292.931 270.897 293.461L270.887 293.454Z" fill="var(--flag-palette-bright-red, #d80027)"/>
<circle cx="272" cy="432" r="32" fill="var(--flag-palette-yellow, #ffda44)"/>
<circle cx="272" cy="432" r="24" fill="var(--flag-palette-gold, #ff9811)"/>
<path d="M296 432.005C296 445.254 285.264 456 272.02 456C258.776 456 248 445.254 248 432.005C248 425.372 253.372 419.98 260.007 419.98C266.647 419.98 272.002 425.372 272.002 432.005C272.002 438.64 277.368 444.021 284.01 444.021C290.64 444.02 296 438.64 296 432.005Z" fill="var(--flag-palette-navy, #002266)"/>
<path d="M149.004 414.657L184.266 372.633C191.364 364.175 203.975 363.071 212.434 370.169C220.893 377.267 221.996 389.878 214.898 398.337L214.057 399.34C211.229 402.258 207.488 404.344 203.181 405.104L149.004 414.657Z" fill="var(--flag-palette-green, #6da544)"/>
<path d="M394.996 414.657L359.734 372.633C352.636 364.175 340.025 363.071 331.566 370.169C323.107 377.267 322.004 389.878 329.102 398.337L329.943 399.34C332.771 402.258 336.512 404.344 340.819 405.104L394.996 414.657Z" fill="var(--flag-palette-green, #6da544)"/>
</svg>

<svg xmlns="http://www.w3.org/2000/svg" width="512" height="512" fill="none"><path fill="var(--flag-palette-yellow, #ffda44)" d="M0 0h512v512H0z"/><path fill="var(--flag-palette-bright-red, #d80027)" d="M512 480V32H32v447.6h479.5z"/><path fill="#026" d="m32 32 240 224-99.4-224H272v224L32 163.2zm0 316.8V256h240zM512 480 272 256l240 92.8zm0-224H272l240-92.8zm0-224L272 256l99.5-224z"/><circle cx="272" cy="256" r="89" fill="var(--flag-palette-yellow, #ffda44)"/><path fill="#EEE" d="m272 256 240 224H32z"/><path fill="var(--flag-palette-gold, #ff9811)" d="m272 356.9 24 24h-48z"/><path fill="var(--flag-palette-bright-red, #d80027)" d="M270.9 293.5c-.6 2-1.2 3.3-2 4.9q-1.6 2.1-4.3 4c-2.2 1.6-4.8 3.4-6.4 6.5q-2.9 5.9-3.1 8.6l-.4-2.8a23 23 0 0 1 .5-6.4c.3-1.9.5-3-.2-1.9l-1.6 1.8c-2.8 3.1-8.6 9.5-9.7 15.2-.9 3.3-1.2 5.5 0 8.8 1 4 2.4 5.5 5.8 9.4l.8.9c.5.4.2-1.8-.3-4l-.5-4.1c-.3-1.4.3-.1 1.3 1.9a40 40 0 0 0 7.9 11.1c3 2.5 9.3 7 8.7 6.3a11 11 0 0 1-2-4.3l-.3-1.2c-.9-3.2-.9-5.7 0-9.3q.6-2.3 1.6-4.4 1.1-2 1-2.9c.2-1.3.5.2.8 2l.7 2.8c.8 3 2.4 6.3 3.6 9.1s2.3 5 2.1 5.6c-.3.4 4.4-3 6.4-5.1 2.7-2.7 4.2-7.3 5-9.6q.4-1.5.5-1.4c2.3 3 1.5 8.2 1.2 8.8s3.5-2.3 4.9-4.3c4.3-5.3 3.2-9.6 1.5-15.7l-1.7-3.9c-.8-1.4-1.5-2.7-2.1-5-.3-1.3.6-4 1.1-5.7.5-1.4.7-2.1-.2-.6q-1 1-3.2 2.7c-2.1 1.7-4.7 3.7-6.1 5.8l-.3.4.8-2.8.5-1.3q.2-1 1-2c.5-.8-3.2 1.8-4.8 3.3a10 10 0 0 0-3 3.8c.2-2.5 2.3-7.7 2.6-8.1.3-.8.6-2.6.3-4-.3-2-2-6.5-1.7-4.7.2 3.6-1.8 6.3-5 9.3q-3 2.3-6 5.6a14 14 0 0 1 2.8-8.2c3.2-3.7 5.2-8.1 4.1-13-.3-2.1-1.7-6.5-1.7-5.5q-.1 1.3-.5 2.2z"/><circle cx="272" cy="432" r="32" fill="var(--flag-palette-yellow, #ffda44)"/><circle cx="272" cy="432" r="24" fill="var(--flag-palette-gold, #ff9811)"/><path fill="#026" d="M296 432a24 24 0 1 1-48 0 12 12 0 1 1 24 0 12 12 0 1 0 24 0"/><path fill="var(--flag-palette-green, #6da544)" d="m149 414.7 35.3-42a20 20 0 0 1 30.6 25.6l-.8 1a20 20 0 0 1-11 5.8zm246 0-35.3-42a20 20 0 0 0-30.6 25.6l.8 1q4.4 4.6 11 5.8z"/></svg>
